src/images/svg/be-square/facebook.svg

<svg width="32" height="33" viewBox="0 0 32 33" fill="none" xmlns="http://www.w3.org/2000/svg">
<path d="M26.0181 2.67212H5.98255C4.15142 2.67212 2.66699 4.15654 2.66699 5.98767V26.0232C2.66699 27.8544 4.15142 29.3388 5.98255 29.3388H26.0181C27.8492 29.3388 29.3337 27.8544 29.3337 26.0232V5.98767C29.3337 4.15654 27.8492 2.67212 26.0181 2.67212Z" fill="white"/>
<path fill-rule="evenodd" clip-rule="evenodd" d="M20.8525 10.4569C20.3176 10.3587 19.5951 10.2853 19.1407 10.2853C17.9103 10.2853 17.8303 10.7764 17.8303 11.5622V12.961H20.906L20.6379 15.8585H17.8303V24.672H13.9793V15.8585H12V12.961H13.9793V11.1687C13.9793 8.71373 15.2361 7.33862 18.3917 7.33862C19.4881 7.33862 20.2905 7.48596 21.3333 7.6824L20.8525 10.4569Z" fill="black"/>
</svg>

<svg xmlns="http://www.w3.org/2000/svg" width="32" height="33" fill="none"  xmlns:v="https://vecta.io/nano"><path d="M26.018 2.672H5.983c-1.831 0-3.316 1.484-3.316 3.316v20.036c0 1.831 1.484 3.316 3.316 3.316h20.036c1.831 0 3.316-1.484 3.316-3.316V5.988c0-1.831-1.485-3.316-3.316-3.316z" fill="#fff"/><path fill-rule="evenodd" d="M20.853 10.457c-.535-.098-1.257-.172-1.712-.172-1.23 0-1.31.491-1.31 1.277v1.399h3.076l-.268 2.897H17.83v8.814h-3.851v-8.814H12v-2.897h1.979v-1.792c0-2.455 1.257-3.83 4.412-3.83 1.096 0 1.899.147 2.942.344l-.481 2.774z" fill="#000"/></svg>
